X:1
T:Title
%%score ( 1 2 ) { 3 | 4 }
L:1/8
Q:1/4=110
M:4/4
K:Bb
V:1 treble nm="Grand Piano, Staff"
V:2 treble 
V:3 bass nm="Choir Pad, A Little Kingdom, CMD"
V:4 bass 
V:1
 F2 B2- B/ z/ A G2 | F2 [CEA]2- [CEA][B,EG] [A,EF]2 | GA B2- B/ z/ A [C=EG]2 | [=Ec]2 [_Ec]6 | %4
w: By~Alonzo~P.~Howard,~1873 * * * *||||
 [Fc]2 [D^Fd]2- [DFd][DFc] [GB]2 | [^FA]2 [DG]2- [DG][CDA] [DGB]2 | %6
w: ||
 [C=EGB]2 [DF]2- [DF][DF] [_EF]2 | [EF]2 [DB]6 | [EF]2 [EF]2- [EF][EG] [EA]2 | %9
w: |||
 [EF]2 [Ec]2- [Ec][DB] [EA]2 | [EA]2 [EA]2- [EA][EB] [Ec]2 | [E=B]2 [Ec]6 | [EF]2 B2- B/ z/ A G2 | %13
w: ||||
 [EGc][FGd] [EGe]2- [EGe][FGd] [EGc]2 | [C=EB]2 [DFd]2- [DFd][DFd] d2 | c2 [DB]6- | [DB]2 z2 z4 |] %17
w: ||||
V:2
 x8 | x8 | x8 | x8 | x8 | x8 | x8 | x8 | x8 | x8 | x8 | x8 | x8 | x8 | z4 z2 _E2- | E2 z2 z4 | %16
 x8 |] %17
V:3
 F,2 B,2- B,/ z/ A, G,2 | F,2 F,2- F,F, F,2 | G,A, B,2- B,A, C,2 | B,2 A,6 | A,2 A,2- A,A, D2 | %5
 C2 B,2- B,/ z/ ^F, G,2 | C,2 B,2- B,=B, C2 | A,2 B,6 | A,2 A,2- A,B, C2 | A,2 A,2- A,G, F,2 | %10
 F,2 F,2- F,/ z/ G, A,2 | _A,2 =A,6 | A,2 B,2- B,A, G,2 | E,D,[K:treble] C2- C=B, C2 | %14
 B,2[K:bass] B,2- B,B, A,2- | A,2 B,6- | B,2 z2 z4 |] %17
V:4
 z8 | z2 F,,2- F,,F,, F,,2 | G,,A,, B,,2- B,,A,, z2 | G,2 F,6 | E,2 D,2- D,D, D,2 | D,2 z2 z4 | %6
 z2 F,4 [F,,F,]2- | [F,,F,]2 B,,6 | F,2 F,2- F,F, F,2 | F,2 F,2- F,F, z2 | z4 z F, G,2 | F,2 F,6 | %12
 F,2 B,,2- B,,A,, G,,2 | E,,D,, C,2- C,[D,G,] [E,G,]2 | G,2 F,2- F,F, F,2- | F,2 [B,,F,]6- | %16
 [B,,F,]2 z2 z4 |] %17

